src/lib/packages/icons/src/assets/filled/exchange-vertical-circle.svg

<svg width="24" height="24" viewBox="0 0 24 24" fill="none" xmlns="http://www.w3.org/2000/svg">
<path d="M12 2C6.477 2 2 6.477 2 12C2 17.523 6.477 22 12 22C17.523 22 22 17.523 22 12C22 6.477 17.523 2 12 2ZM11.25 17C11.25 17.303 11.0671 17.5771 10.7871 17.6931C10.6941 17.7321 10.597 17.75 10.5 17.75C10.305 17.75 10.113 17.674 9.96997 17.53L6.96997 14.53C6.67697 14.237 6.67697 13.762 6.96997 13.469C7.26297 13.176 7.73801 13.176 8.03101 13.469L9.75098 15.189V9C9.75098 8.586 10.087 8.25 10.501 8.25C10.915 8.25 11.251 8.586 11.251 9V17H11.25ZM17.03 10.53C16.737 10.823 16.262 10.823 15.969 10.53L14.249 8.81006V15C14.249 15.414 13.913 15.75 13.499 15.75C13.085 15.75 12.749 15.414 12.749 15V7C12.749 6.697 12.9319 6.42288 13.2119 6.30688C13.4919 6.19088 13.8151 6.25497 14.0291 6.46997L17.0291 9.46997C17.3231 9.76297 17.323 10.237 17.03 10.53Z" fill="currentColor"/>
</svg>

<svg xmlns="http://www.w3.org/2000/svg" width="24" height="24" fill="none"><path fill="currentColor" d="M12 2C6.477 2 2 6.477 2 12s4.477 10 10 10 10-4.477 10-10S17.523 2 12 2Zm-.75 15a.75.75 0 0 1-1.28.53l-3-3a.75.75 0 1 1 1.061-1.061l1.72 1.72V9a.75.75 0 0 1 1.5 0v8h-.001Zm5.78-6.47a.75.75 0 0 1-1.061 0l-1.72-1.72V15a.75.75 0 0 1-1.5 0V7a.75.75 0 0 1 1.28-.53l3 3a.748.748 0 0 1 .001 1.06Z"/></svg>
